X:1
T:Title
%%score ( 1 2 ) { 3 | 4 }
L:1/8
Q:1/4=86
M:6/8
K:G
V:1 treble nm="Grand Piano, Soprano"
V:2 treble 
V:3 bass nm="Choir Pad, The Love That Gave Jesus"
V:4 bass 
V:1
 [B,G]/[CA]<[DB][CA]/ [B,G][CA][CE] | [CF] [B,G]2- [B,G]2- [B,G]/ z/ | [DG][FA][FA] [FA][GB][Ac] | %3
w: By~James~McGranahan * * * * * *|||
 [GB] [FA]2- [FA]2- [FA]/ z/ | [GB]/[Ac]<[Bd][ce]/ [GB] [Bd]2 | [GB]/[FA]<[EG][CA]/ [CE] [EG]2 | %6
w: |||
 [DF]/[CE]/[B,D][B,G] [DB][CA][CE] | [CF] [B,G]2- [B,G]2- [B,G]/ z/ | %8
w: ||
 [DG]/[GB]<[Fd][FA]/ [FA][FA][GB] | [Ac] [Ac]2- [Ac] [GB]2 | .G3 z3 | [FA] [FA]2- [FA] [EG]2 | %12
w: ||||
 [CE][B,D][DG] [GB] [Bd]2 | [D=F][CE][Ec]- [Ec]/[Ec]/ [Ec]2 | [Ec][DB]>[CA] [B,G][CA][CE] | %15
w: |||
 [CF] [B,G]2- [B,G]3- | [B,G]3 z3 |] %17
w: ||
V:2
 x6 | x6 | x6 | x6 | x6 | x6 | x6 | x6 | x6 | x6 | B/-[EB]<[^DB][DF]/ [DF][DF][EG] | x6 | x6 | x6 | %14
 x6 | x6 | x6 |] %17
V:3
 G,/G,<G,G,/ G,F,G, | A, G,2- G,2- G,/ z/ | DDD DDD | D D2- D2- D/ z/ | G,/G,<G,G,/ G, G,2 | %5
 D,/D,<G,E,/ G, C2 | G,/G,/G,G, G,F,G, | A, G,2- G,2- G,/ z/ | B,/B,<A,[K:treble]D/ DDD | %9
 D D2- D2- D/ z/ | G,F,>B, B,B,B, | B, B,2- B,2- B,/ z/ | A,B,B, D G,2 | G,G,G,- G,/G,/ G,2 | %14
 G,G,>G, G,F,G, | A, G,2- G,3- | G,3 z3 |] %17
V:4
 z3 z D,D, | D, G,,2- G,,2- G,,/ z/ | B,,D,D, D,G,F, | G, D,2- D,2- D,/ z/ | z6 | %5
 G,,/B,,<C,C,/ C, C,2 | C,/C,/D,D, D,D,D, | D, G,,2- G,,2- G,,/ z/ | G,/G,<D,D,/ D,D,D, | %9
 D, G,2- G,2- G,/ z/ | E,B,,>B,, B,,B,,B,, | B,, E,2- E,2- E,/ z/ | F,G,G, .G,3 | %13
 B,,C,C,- C,/C,/ C,2 | C,D,>D, D,D,D, | D, G,,2- G,,3- | G,,3 z3 |] %17

